v4/scattered_snow_showers_night.svg

<svg width="48" height="48" viewBox="0 0 48 48" fill="none" xmlns="http://www.w3.org/2000/svg">
<path fill-rule="evenodd" clip-rule="evenodd" d="M13.969 1C12.276 3.054 11.264 5.66 11.264 8.496C11.264 15.125 16.795 20.499 23.617 20.499C23.745 20.499 23.873 20.497 24 20.493C21.736 23.24 18.256 25 14.352 25C7.53 25 2 19.626 2 12.997C2 6.493 7.324 1.197 13.969 1Z" fill="url(#paint0_linear_25_307)"/>
<path fill-rule="evenodd" clip-rule="evenodd" d="M47 16.499C47 24.857 40.338 31.67 32 31.986V32H11V31.997C10.952 31.998 10.905 31.998 10.857 31.998C5.413 31.998 1 27.615 1 22.209C1 16.803 5.413 12.42 10.857 12.42C12.746 12.42 14.512 12.948 16.011 13.864C17.271 6.559 23.678 1 31.393 1C40.013 1 47 7.939 47 16.499Z" fill="url(#paint1_linear_25_307)" fill-opacity="0.92"/>
<path fill-rule="evenodd" clip-rule="evenodd" d="M23.254 29.193V34H24.746V29.193L29.254 31.596L30 30.404L25.491 28L30 25.596L29.254 24.404L24.746 26.808V22H23.254V26.807L18.746 24.404L18 25.596L22.509 28L18 30.404L18.746 31.596L23.254 29.193Z" fill="#757575"/>
<path d="M23.2541 29.193H23.4041V28.943L23.1841 29.06L23.2541 29.193ZM23.2541 34H23.1041V34.15H23.2541V34ZM24.7461 34V34.15H24.8961V34H24.7461ZM24.7461 29.193L24.8161 29.06L24.5961 28.943V29.193H24.7461ZM29.2541 31.596L29.1841 31.729L29.3071 31.795L29.3821 31.676L29.2541 31.596ZM30.0001 30.404L30.1271 30.483L30.2121 30.347L30.0711 30.271L30.0001 30.404ZM25.4911 28L25.4211 27.868L25.1721 28L25.4211 28.132L25.4911 28ZM30.0001 25.596L30.0711 25.729L30.2121 25.653L30.1271 25.517L30.0001 25.596ZM29.2541 24.404L29.3821 24.324L29.3071 24.206L29.1841 24.271L29.2541 24.404ZM24.7461 26.808H24.5961V27.058L24.8161 26.94L24.7461 26.808ZM24.7461 22H24.8961V21.85H24.7461V22ZM23.2541 22V21.85H23.1041V22H23.2541ZM23.2541 26.807L23.1841 26.94L23.4041 27.057V26.807H23.2541ZM18.7461 24.404L18.8161 24.271L18.6931 24.206L18.6181 24.324L18.7461 24.404ZM18.0001 25.596L17.8731 25.517L17.7881 25.653L17.9291 25.729L18.0001 25.596ZM22.5091 28L22.5791 28.132L22.8281 28L22.5791 27.868L22.5091 28ZM18.0001 30.404L17.9291 30.271L17.7881 30.347L17.8731 30.483L18.0001 30.404ZM18.7461 31.596L18.6181 31.676L18.6931 31.795L18.8161 31.729L18.7461 31.596ZM23.1041 29.193V34H23.4041V29.193H23.1041ZM23.2541 34.15H24.7461V33.85H23.2541V34.15ZM24.8961 34V29.193H24.5961V34H24.8961ZM24.6751 29.325L29.1841 31.729L29.3251 31.464L24.8161 29.06L24.6751 29.325ZM29.3821 31.676L30.1271 30.483L29.8731 30.324L29.1271 31.517L29.3821 31.676ZM30.0711 30.271L25.5621 27.868L25.4211 28.132L29.9291 30.536L30.0711 30.271ZM29.9291 25.464L25.4211 27.868L25.5621 28.132L30.0711 25.729L29.9291 25.464ZM29.1271 24.483L29.8731 25.676L30.1271 25.517L29.3821 24.324L29.1271 24.483ZM24.8161 26.94L29.3251 24.536L29.1841 24.271L24.6751 26.675L24.8161 26.94ZM24.8961 26.808V22H24.5961V26.808H24.8961ZM24.7461 21.85H23.2541V22.15H24.7461V21.85ZM23.1041 22V26.807H23.4041V22H23.1041ZM23.3251 26.675L18.8161 24.271L18.6751 24.536L23.1841 26.94L23.3251 26.675ZM18.6181 24.324L17.8731 25.517L18.1271 25.676L18.8731 24.483L18.6181 24.324ZM17.9291 25.729L22.4381 28.132L22.5791 27.868L18.0711 25.464L17.9291 25.729ZM18.0711 30.536L22.5791 28.132L22.4381 27.868L17.9291 30.271L18.0711 30.536ZM18.8731 31.517L18.1271 30.324L17.8731 30.483L18.6181 31.676L18.8731 31.517ZM23.1841 29.06L18.6751 31.464L18.8161 31.729L23.3251 29.325L23.1841 29.06Z" fill="#757575"/>
<path fill-rule="evenodd" clip-rule="evenodd" d="M34.379 39.993V44H35.621V39.993L39.379 41.996L40 41.003L36.243 39L40 36.996L39.379 36.003L35.621 38.006V34H34.379V38.006L30.621 36.003L30 36.996L33.757 39L30 41.003L30.621 41.996L34.379 39.993Z" fill="#757575"/>
<path d="M34.3791 39.993H34.5291V39.743L34.3081 39.861L34.3791 39.993ZM34.3791 44H34.2291V44.15H34.3791V44ZM35.6211 44V44.15H35.7711V44H35.6211ZM35.6211 39.993L35.6921 39.861L35.4711 39.743V39.993H35.6211ZM39.3791 41.996L39.3081 42.129L39.4321 42.195L39.5061 42.076L39.3791 41.996ZM40.0001 41.003L40.1271 41.082L40.2121 40.946L40.0711 40.87L40.0001 41.003ZM36.2431 39L36.1721 38.867L35.9241 39L36.1721 39.132L36.2431 39ZM40.0001 36.996L40.0711 37.129L40.2121 37.053L40.1271 36.917L40.0001 36.996ZM39.3791 36.003L39.5061 35.923L39.4321 35.804L39.3081 35.87L39.3791 36.003ZM35.6211 38.006H35.4711V38.256L35.6921 38.138L35.6211 38.006ZM35.6211 34H35.7711V33.85H35.6211V34ZM34.3791 34V33.85H34.2291V34H34.3791ZM34.3791 38.006L34.3081 38.138L34.5291 38.256V38.006H34.3791ZM30.6211 36.003L30.6921 35.87L30.5681 35.804L30.4941 35.923L30.6211 36.003ZM30.0001 36.996L29.8731 36.917L29.7881 37.053L29.9291 37.129L30.0001 36.996ZM33.7571 39L33.8281 39.132L34.0761 39L33.8281 38.867L33.7571 39ZM30.0001 41.003L29.9291 40.87L29.7881 40.946L29.8731 41.082L30.0001 41.003ZM30.6211 41.996L30.4941 42.076L30.5681 42.195L30.6921 42.129L30.6211 41.996ZM34.2291 39.993V44H34.5291V39.993H34.2291ZM34.3791 44.15H35.6211V43.85H34.3791V44.15ZM35.7711 44V39.993H35.4711V44H35.7711ZM35.5511 40.126L39.3081 42.129L39.4491 41.864L35.6921 39.861L35.5511 40.126ZM39.5061 42.076L40.1271 41.082L39.8731 40.923L39.2511 41.917L39.5061 42.076ZM40.0711 40.87L36.3131 38.867L36.1721 39.132L39.9291 41.135L40.0711 40.87ZM39.9291 36.864L36.1721 38.867L36.3131 39.132L40.0711 37.129L39.9291 36.864ZM39.2511 36.082L39.8731 37.076L40.1271 36.917L39.5061 35.923L39.2511 36.082ZM35.6921 38.138L39.4491 36.135L39.3081 35.87L35.5511 37.873L35.6921 38.138ZM35.7711 38.006V34H35.4711V38.006H35.7711ZM35.6211 33.85H34.3791V34.15H35.6211V33.85ZM34.2291 34V38.006H34.5291V34H34.2291ZM34.4491 37.873L30.6921 35.87L30.5511 36.135L34.3081 38.138L34.4491 37.873ZM30.4941 35.923L29.8731 36.917L30.1271 37.076L30.7491 36.082L30.4941 35.923ZM29.9291 37.129L33.6871 39.132L33.8281 38.867L30.0711 36.864L29.9291 37.129ZM30.0711 41.135L33.8281 39.132L33.6871 38.867L29.9291 40.87L30.0711 41.135ZM30.7491 41.917L30.1271 40.923L29.8731 41.082L30.4941 42.076L30.7491 41.917ZM34.3081 39.861L30.5511 41.864L30.6921 42.129L34.4491 40.126L34.3081 39.861Z" fill="#757575"/>
<path fill-rule="evenodd" clip-rule="evenodd" d="M39.254 25.193V30H40.745V25.193L45.254 27.596L46 26.404L41.491 24L46 21.596L45.254 20.404L40.745 22.808V18H39.254V22.807L34.746 20.404L34 21.596L38.509 24L34 26.404L34.746 27.596L39.254 25.193Z" fill="#757575"/>
<path d="M39.2541 25.193H39.4041V24.943L39.1841 25.06L39.2541 25.193ZM39.2541 30H39.1041V30.15H39.2541V30ZM40.7451 30V30.15H40.8961V30H40.7451ZM40.7451 25.193L40.8161 25.06L40.5961 24.943V25.193H40.7451ZM45.2541 27.596L45.1841 27.729L45.3071 27.795L45.3821 27.676L45.2541 27.596ZM46.0001 26.404L46.1271 26.483L46.2121 26.347L46.0711 26.271L46.0001 26.404ZM41.4911 24L41.4211 23.868L41.1721 24L41.4211 24.132L41.4911 24ZM46.0001 21.596L46.0711 21.729L46.2121 21.653L46.1271 21.517L46.0001 21.596ZM45.2541 20.404L45.3821 20.324L45.3071 20.206L45.1841 20.271L45.2541 20.404ZM40.7451 22.808H40.5961V23.058L40.8161 22.94L40.7451 22.808ZM40.7451 18H40.8961V17.85H40.7451V18ZM39.2541 18V17.85H39.1041V18H39.2541ZM39.2541 22.807L39.1841 22.94L39.4041 23.057V22.807H39.2541ZM34.7461 20.404L34.8161 20.271L34.6931 20.206L34.6181 20.324L34.7461 20.404ZM34.0001 21.596L33.8731 21.517L33.7881 21.653L33.9291 21.729L34.0001 21.596ZM38.5091 24L38.5791 24.132L38.8281 24L38.5791 23.868L38.5091 24ZM34.0001 26.404L33.9291 26.271L33.7881 26.347L33.8731 26.483L34.0001 26.404ZM34.7461 27.596L34.6181 27.676L34.6931 27.795L34.8161 27.729L34.7461 27.596ZM39.1041 25.193V30H39.4041V25.193H39.1041ZM39.2541 30.15H40.7451V29.85H39.2541V30.15ZM40.8961 30V25.193H40.5961V30H40.8961ZM40.6751 25.325L45.1841 27.729L45.3251 27.464L40.8161 25.06L40.6751 25.325ZM45.3821 27.676L46.1271 26.483L45.8731 26.324L45.1271 27.517L45.3821 27.676ZM46.0711 26.271L41.5621 23.868L41.4211 24.132L45.9291 26.536L46.0711 26.271ZM45.9291 21.464L41.4211 23.868L41.5621 24.132L46.0711 21.729L45.9291 21.464ZM45.1271 20.483L45.8731 21.676L46.1271 21.517L45.3821 20.324L45.1271 20.483ZM40.8161 22.94L45.3251 20.536L45.1841 20.271L40.6751 22.675L40.8161 22.94ZM40.8961 22.808V18H40.5961V22.808H40.8961ZM40.7451 17.85H39.2541V18.15H40.7451V17.85ZM39.1041 18V22.807H39.4041V18H39.1041ZM39.3251 22.675L34.8161 20.271L34.6751 20.536L39.1841 22.94L39.3251 22.675ZM34.6181 20.324L33.8731 21.517L34.1271 21.676L34.8731 20.483L34.6181 20.324ZM33.9291 21.729L38.4381 24.132L38.5791 23.868L34.0711 21.464L33.9291 21.729ZM34.0711 26.536L38.5791 24.132L38.4381 23.868L33.9291 26.271L34.0711 26.536ZM34.8731 27.517L34.1271 26.324L33.8731 26.483L34.6181 27.676L34.8731 27.517ZM39.1841 25.06L34.6751 27.464L34.8161 27.729L39.3251 25.325L39.1841 25.06Z" fill="#757575"/>
<defs>
<linearGradient id="paint0_linear_25_307" x1="0.0870001" y1="1" x2="31.34" y2="30.365" gradientUnits="userSpaceOnUse">
<stop stop-color="#A8C7FA"/>
<stop offset="0.771" stop-color="#4C8DF6"/>
</linearGradient>
<linearGradient id="paint1_linear_25_307" x1="30.9" y1="30.083" x2="8.558" y2="11.527" gradientUnits="userSpaceOnUse">
<stop stop-color="#B5B5B5"/>
<stop offset="1" stop-color="#E3E3E3"/>
</linearGradient>
</defs>
</svg>

<svg xmlns="http://www.w3.org/2000/svg" fill="none" viewBox="0 0 48 48">
  <path fill="url(#a)" fill-rule="evenodd" d="M13.969 1a11.74 11.74 0 0 0-2.705 7.496c0 6.629 5.531 12.003 12.353 12.003.128 0 .256-.002.383-.006C21.736 23.24 18.256 25 14.352 25 7.53 25 2 19.626 2 12.997 2 6.493 7.324 1.197 13.969 1Z" clip-rule="evenodd"/>
  <path fill="url(#b)" fill-opacity=".92" fill-rule="evenodd" d="M47 16.499c0 8.358-6.662 15.171-15 15.487V32H11v-.003l-.143.001C5.413 31.998 1 27.615 1 22.209s4.413-9.789 9.857-9.789c1.889 0 3.655.528 5.154 1.444C17.271 6.559 23.678 1 31.393 1 40.013 1 47 7.939 47 16.499Z" clip-rule="evenodd"/>
  <path fill="#757575" fill-rule="evenodd" d="M23.254 29.193V34h1.492v-4.807l4.508 2.403.746-1.192L25.491 28 30 25.596l-.746-1.192-4.508 2.404V22h-1.492v4.807l-4.508-2.403L18 25.596 22.509 28 18 30.404l.746 1.192 4.508-2.403Z" clip-rule="evenodd"/>
  <path fill="#757575" d="M23.254 29.193h.15v-.25l-.22.117.07.133Zm0 4.807h-.15v.15h.15V34Zm1.492 0v.15h.15V34h-.15Zm0-4.807.07-.133-.22-.117v.25h.15Zm4.508 2.403-.07.133.123.066.075-.119-.128-.08ZM30 30.404l.127.079.085-.136-.14-.076-.072.133ZM25.491 28l-.07-.132-.249.132.25.132.07-.132Zm4.51-2.404.07.133.141-.076-.085-.136-.127.079Zm-.747-1.192.128-.08-.075-.118-.123.065.07.133Zm-4.508 2.404h-.15v.25l.22-.118-.07-.132Zm0-4.808h.15v-.15h-.15V22Zm-1.492 0v-.15h-.15V22h.15Zm0 4.807-.07.133.22.117v-.25h-.15Zm-4.508-2.403.07-.133-.123-.065-.075.118.128.08ZM18 25.596l-.127-.079-.085.136.141.076.071-.133ZM22.51 28l.07.132.248-.132-.249-.132-.07.132ZM18 30.404l-.07-.133-.142.076.085.136.127-.079Zm.746 1.192-.128.08.075.119.123-.066-.07-.133Zm4.358-2.403V34h.3v-4.807h-.3Zm.15 4.957h1.492v-.3h-1.492v.3Zm1.642-.15v-4.807h-.3V34h.3Zm-.22-4.675 4.508 2.404.141-.265-4.509-2.404-.14.265Zm4.706 2.351.745-1.193-.254-.159-.746 1.193.255.159Zm.69-1.405-4.51-2.403-.14.264 4.507 2.404.142-.265Zm-.143-4.807-4.508 2.404.141.264 4.51-2.403-.143-.265Zm-.802-.981.746 1.193.254-.159-.745-1.193-.255.159Zm-4.31 2.457 4.508-2.404-.14-.265-4.51 2.404.141.265Zm.08-.132V22h-.3v4.808h.3Zm-.15-4.958h-1.493v.3h1.492v-.3Zm-1.643.15v4.807h.3V22h-.3Zm.221 4.675-4.509-2.404-.14.265 4.508 2.404.141-.265Zm-4.707-2.351-.745 1.193.254.159.746-1.193-.255-.159Zm-.689 1.405 4.51 2.403.14-.264-4.508-2.404-.142.265Zm.142 4.807 4.508-2.404-.14-.264-4.51 2.403.142.265Zm.802.981-.746-1.193-.254.159.745 1.193.255-.159Zm4.311-2.457-4.509 2.404.141.265 4.51-2.404-.142-.265Z"/>
  <path fill="#757575" fill-rule="evenodd" d="M34.379 39.993V44h1.242v-4.007l3.758 2.003.621-.993L36.243 39 40 36.996l-.621-.993-3.758 2.003V34h-1.242v4.006l-3.758-2.003-.621.993L33.757 39 30 41.003l.621.993 3.758-2.003Z" clip-rule="evenodd"/>
  <path fill="#757575" d="M34.38 39.993h.15v-.25l-.222.118.071.132Zm0 4.007h-.15v.15h.15V44Zm1.241 0v.15h.15V44h-.15Zm0-4.007.071-.132-.22-.118v.25h.15Zm3.758 2.003-.07.133.123.066.074-.119-.127-.08Zm.621-.993.127.079.085-.136-.14-.076-.072.133ZM36.243 39l-.07-.133-.249.133.248.132.071-.132ZM40 36.996l.071.133.141-.076-.085-.136-.127.079Zm-.62-.993.126-.08-.074-.119-.124.066.071.133Zm-3.759 2.003h-.15v.25l.221-.118-.07-.132Zm0-4.006h.15v-.15h-.15V34Zm-1.242 0v-.15h-.15V34h.15Zm0 4.006-.07.132.22.118v-.25h-.15Zm-3.758-2.003.071-.133-.124-.066-.074.119.127.08Zm-.62.993-.128-.079-.085.136.141.076.071-.133ZM33.756 39l.071.132.248-.132-.248-.133-.07.133ZM30 41.003l-.07-.133-.142.076.085.136.127-.079Zm.621.993-.127.08.074.119.124-.066-.07-.133Zm3.608-2.003V44h.3v-4.007h-.3Zm.15 4.157h1.242v-.3H34.38v.3Zm1.392-.15v-4.007h-.3V44h.3Zm-.22-3.874 3.757 2.003.141-.265-3.757-2.003-.14.265Zm3.955 1.95.621-.994-.254-.159-.622.994.255.159Zm.565-1.206-3.758-2.003-.14.265 3.756 2.003.142-.265Zm-.142-4.006-3.757 2.003.141.265 3.758-2.003-.142-.265Zm-.678-.782.622.994.254-.159-.62-.994-.256.159Zm-3.559 2.056 3.757-2.003-.14-.265-3.758 2.003.141.265Zm.08-.132V34h-.3v4.006h.3Zm-.15-4.156h-1.243v.3h1.242v-.3Zm-1.393.15v4.006h.3V34h-.3Zm.22 3.873-3.757-2.003-.14.265 3.756 2.003.141-.265Zm-3.955-1.95-.62.994.253.159.622-.994-.255-.159Zm-.565 1.206 3.758 2.003.141-.265-3.757-2.003-.142.265Zm.142 4.006 3.757-2.003-.14-.265-3.759 2.003.142.265Zm.678.782-.622-.994-.254.159.621.994.255-.159Zm3.56-2.056-3.758 2.003.141.265 3.757-2.003-.14-.265Z"/>
  <path fill="#757575" fill-rule="evenodd" d="M39.254 25.193V30h1.491v-4.807l4.509 2.403.746-1.192L41.491 24 46 21.596l-.746-1.192-4.509 2.404V18h-1.491v4.807l-4.508-2.403L34 21.596 38.509 24 34 26.404l.746 1.192 4.508-2.403Z" clip-rule="evenodd"/>
  <path fill="#757575" d="M39.254 25.193h.15v-.25l-.22.117.07.133Zm0 4.807h-.15v.15h.15V30Zm1.491 0v.15h.151V30h-.15Zm0-4.807.071-.133-.22-.117v.25h.15Zm4.51 2.403-.07.133.122.066.075-.119-.128-.08ZM46 26.404l.127.079.085-.136-.14-.076-.072.133ZM41.491 24l-.07-.132-.249.132.25.132.07-.132Zm4.51-2.404.07.133.141-.076-.085-.136-.127.079Zm-.747-1.192.128-.08-.075-.118-.123.065.07.133Zm-4.509 2.404h-.149v.25l.22-.118-.07-.132Zm0-4.808h.151v-.15h-.15V18Zm-1.49 0v-.15h-.15V18h.15Zm0 4.807-.07.133.22.117v-.25h-.15Zm-4.509-2.403.07-.133-.123-.065-.075.118.128.08ZM34 21.596l-.127-.079-.085.136.141.076.071-.133ZM38.51 24l.07.132.248-.132-.249-.132-.07.132ZM34 26.404l-.07-.133-.142.076.085.136.127-.079Zm.746 1.192-.128.08.075.119.123-.066-.07-.133Zm4.358-2.403V30h.3v-4.807h-.3Zm.15 4.957h1.491v-.3h-1.49v.3Zm1.642-.15v-4.807h-.3V30h.3Zm-.22-4.675 4.508 2.404.141-.265-4.509-2.404-.14.265Zm4.706 2.351.745-1.193-.254-.159-.746 1.193.255.159Zm.69-1.405-4.51-2.403-.14.264 4.507 2.404.142-.265Zm-.143-4.807-4.508 2.404.141.264 4.51-2.403-.143-.265Zm-.802-.981.746 1.193.254-.159-.745-1.193-.255.159Zm-4.31 2.457 4.508-2.404-.14-.265-4.51 2.404.141.265Zm.08-.132V18h-.3v4.808h.3Zm-.152-4.958h-1.49v.3h1.49v-.3Zm-1.64.15v4.807h.3V18h-.3Zm.22 4.675-4.509-2.404-.14.265 4.508 2.404.141-.265Zm-4.707-2.351-.745 1.193.254.159.746-1.193-.255-.159Zm-.689 1.405 4.51 2.403.14-.264-4.508-2.404-.142.265Zm.142 4.807 4.508-2.404-.14-.264-4.51 2.403.142.265Zm.802.981-.746-1.193-.254.159.745 1.193.255-.159Zm4.311-2.457-4.509 2.404.141.265 4.51-2.404-.142-.265Z"/>
  <defs>
    <linearGradient id="a" x1=".087" x2="31.34" y1="1" y2="30.365" gradientUnits="userSpaceOnUse">
      <stop stop-color="#A8C7FA"/>
      <stop offset=".771" stop-color="#4C8DF6"/>
    </linearGradient>
    <linearGradient id="b" x1="30.9" x2="8.558" y1="30.083" y2="11.527" gradientUnits="userSpaceOnUse">
      <stop stop-color="#B5B5B5"/>
      <stop offset="1" stop-color="#E3E3E3"/>
    </linearGradient>
  </defs>
</svg>
